X:5609
T:Gairnside
Z:Jack Campin <http://www.purr.demon.co.uk/jack/> version 1.0 September 2001
C:Geo. S. McLennan
S:G.S. McLennan, Highland Bagpipe Music book 1, 1929
B:NLS MH.s.234
R:Strathspey
M:C
L:1/8
Q:1/4=120
K:Hp
   a/|       A2 {GdGe}A>{d}B {gef}e>A {gBd}B>A|  {g}G2  {dGe}G>{d}A {e}G>A      {gBd}B>{e}G|
          {g}A2 {GdGe}A>{d}B {gef}e>d {g}(3Bcd|{gef}e>g {Gdc}d>g  {aBd}B>{e}A {gAGAG}A3/  :|
{d}B/|{gAGAG}Aa    {g}a>g    {g}(3efg  {ag}a>e| {gf}g>a   {f}g>e  {Gdc}d>e       {gf}g>f   |
   [1     {g}ea    {g}a>g    {a}(3efg  {ag}a>g|{aeg}e>g {Gdc}d>g  {aBd}B>{e}A {gAGAG}A3/  :|
   [2   {g}(3efg  {ag}a>f     {gf}g>f {gef}e>d|{g}(3efg {Gdc}d>g  {aBd}B>{e}A {gAGAG}A3/  |]
